X: 11157
T: Dun, The
R: reel
M: 4/4
K: Gmajor
F3G ABcA|FD E/F/G Add2|~F3G ABcA|BGEF GBAG|
[F3A3]G ABcA|F2{GF}DF AddA|{G}FEFG ABcA|BGEF G2Bc||
(3dcB (3cBA BG G2|BdBc A2Bc|(3dcB (3cBA BGGA|BdcA G2Bc|
ddcA BGGB|Ad~d2 efge|dBcA BG~G2|BdcA G2eg||
K: Dmaj
fdd2 fdde|fddf abag|fd~d2 [d3f3]d|cdef gbag|
fd{e}dd fdde|fddf abaf|gbaf gfed|B/c/d ef g3z||

